X:4
T:Risinge-visan
R:s{\aa}ng
H:Nedtecknad av Carl Erik S\"odling. FMK Upprop 26a:011
Z:id:hn-sang-4
M:C
L:1/8
K:Ddor
A | D2 F>G A2 cd | (f>d) {e}d>c A3 A | c2 A>G F2 A>G | (G3F) D2 z :|
w:O \"Os-ter_-g\"ot-land och Fin_-sp{\aa}ng-a l\"an, ja du \"ar en kro-na f\"or an_-dra.
w:In-om di-na gr\"an-ser bo re-de-li-ga m\"an, hvem v{\aa}-gar v\"al mot dem \"an klan_-dra.
c | F2 F>A A2 G>A | F2 F>D A3 A |
w:O Ri-sing-e soc-ken med \"a-ra och dygd, si
D2 F>G A2 cd | (f>d) {e}d>c A3 A | c2 A>G F2 A>G | (G3F) D2 z ||
w:d\"ar \"ar min hem-ort och f\"a_-der-ne-bygd, d\"ar jag hit till verl-den \"ar f\"od_-der.
W:Men fast\"an jag i livet \"ar kastad likt en sp{\aa}n p{\aa} havet, det djupa och vida.
W:Och mina \"agodelar ej annat \"ar \"an l{\aa}n, jag likav\"al f{\aa}tt tiga och lida.
W:Jag lever dock i hoppet att denna enkla s{\aa}ng
W:blir sjungen i min hembygd d{\aa} jag \"ar d\"od en g{\aa}ng, och m{\aa}nga m{\aa}nga skola mig beklaga.

